dist/flags/m/388.svg

<svg width="20" height="15" viewBox="0 0 20 15" fill="none" xmlns="http://www.w3.org/2000/svg">
<mask id="mask0" mask-type="alpha" maskUnits="userSpaceOnUse" x="0" y="0" width="20" height="15">
<rect width="20" height="15" fill="white"/>
</mask>
<g mask="url(#mask0)">
<path fill-rule="evenodd" clip-rule="evenodd" d="M0 0H20V15H0V0Z" fill="#009933"/>
<path d="M-0.0878832 -0.650707L-1.46875 -1.79052V0V15V16.7905L-0.0878832 15.6507L8.99823 8.15071L9.78655 7.5L8.99823 6.84929L-0.0878832 -0.650707Z" fill="#272727" stroke="#FECA00" stroke-width="1.6875"/>
<path d="M20.1026 -0.66256L21.4688 -1.73978V0V15V16.7398L20.1026 15.6626L10.5908 8.16256L9.75052 7.5L10.5908 6.83744L20.1026 -0.66256Z" fill="#272727" stroke="#FECA00" stroke-width="1.6875"/>
</g>
</svg>

<svg width="20" height="15" fill="none" xmlns="http://www.w3.org/2000/svg">
  <mask id="a" maskUnits="userSpaceOnUse" x="0" y="0" width="20" height="15">
    <path fill="#fff" d="M0 0h20v15H0z"/>
  </mask>
  <g mask="url(#a)">
    <path fill-rule="evenodd" clip-rule="evenodd" d="M0 0h20v15H0V0z" fill="#093"/>
    <path d="M-.088-.65l-1.38-1.14v18.58l1.38-1.14 9.086-7.5.789-.65-.789-.65-9.086-7.5z" fill="#272727" stroke="#FECA00" stroke-width="1.688"/>
    <path d="M20.103-.663l1.366-1.077v18.48l-1.366-1.077-9.512-7.5-.84-.663.84-.663 9.512-7.5z" fill="#272727" stroke="#FECA00" stroke-width="1.688"/>
  </g>
</svg>
